src/images/icon/icon_en.svg

<svg height="20" viewBox="0 0 20 20" width="20" xmlns="http://www.w3.org/2000/svg"><g fill="none" fill-rule="evenodd"><rect height="13" rx="1.428571" stroke="#b6c2cd" stroke-width="1.5" width="13" x="5" y="2"/><g transform="translate(2 4)"><rect fill="#36435c" height="14" rx="1.428571" width="14"/><path d="m5.63736264 10.8571429.45435334-1.63950148h2.32459847l.45435334 1.63950148h1.98647511l-2.44082845-7.14285719h-2.26120033l-2.44082841 7.14285719zm2.41969569-2.9626079h-1.60608623l.16906171-.60402685c.20076078-.70949185.41208791-1.54362416.60228234-2.29146692h.04226542c.21132714.7286673.41208791 1.58197507.62341505 2.29146692z" fill="#fff" fill-rule="nonzero"/></g></g></svg>

<?xml version="1.0" encoding="UTF-8"?>
<svg width="20px" height="20px" viewBox="0 0 20 20" version="1.1" xmlns="http://www.w3.org/2000/svg" xmlns:xlink="http://www.w3.org/1999/xlink">
    
    <g id="Dashboard" stroke="none" stroke-width="1" fill="none" fill-rule="evenodd">
        <g id="00-Menu-交互备份" transform="translate(-259.000000, -299.000000)">
            <g id="icon_close" transform="translate(259.000000, 299.000000)">
                <rect id="形状结合" stroke="#B6C2CD" stroke-width="1.5" x="5" y="2" width="13" height="13" rx="1.42857143"></rect>
                <g id="编组-22" transform="translate(2.000000, 4.000000)">
                    <rect id="形状结合" fill="#36435C" x="0" y="0" width="14" height="14" rx="1.42857143"></rect>
                    <path d="M5.63736264,10.8571429 L6.09171598,9.21764142 L8.41631445,9.21764142 L8.87066779,10.8571429 L10.8571429,10.8571429 L8.41631445,3.71428571 L6.15511412,3.71428571 L3.71428571,10.8571429 L5.63736264,10.8571429 Z M8.05705833,7.894535 L6.4509721,7.894535 L6.62003381,7.29050815 C6.82079459,6.5810163 7.03212172,5.74688399 7.22231615,4.99904123 L7.26458157,4.99904123 C7.47590871,5.72770853 7.67666948,6.5810163 7.88799662,7.29050815 L8.05705833,7.894535 Z" id="A" fill="#FFFFFF" fill-rule="nonzero"></path>
                </g>
            </g>
        </g>
    </g>
</svg>
